X:1
T:Si tu te plains 3v
T:Si tu te plains 3v
T:Tielman Susato
T:Source : Le premier Livre des Chansons à 3 parties---Anvers---T.Susato-1544. Editor : André Vierendeels (01/02/15).
T:Notes : Original clefs : C1, C3, F4 Original note values have been halved Editorial accidentals above the staff Square bracket indicates ligature Dotted brackets indicate black notes Notice above the S voice "Puis chenterez tous trois ensamble" This chanson is the"Responce" to the chanson "Damours me plains"(Susato) See also the "Replicque"(Ie me contente-Susato) to this chanson.
C:Tielman Susato
%%score [ 1 2 3 ]
L:1/8
Q:1/4=90
M:2/2
K:F
V:1 treble nm="Superius" snm="S"
V:2 treble-8 nm="Tenor" snm="T"
V:3 bass nm="Bassus" snm="B"
V:1
 F4 F2 G2 | A6 A2 | G2 A2 B3 A | G4 z2 G2 | G2 G2 A4- | A2 G2 F2 ED | C2 C2 G2 G2 | A3 G FE G2- | %8
w: Si tu te|plains da-|mours tant seul- le-|ment et|que de moy|_ as- sez _ _|_ tu te con-|ten- * * * *|
 GF F4 E2 | F8- | F4 z4 | F4 F2 G2 | A6 A2 | G2 A2 B3 A | G4 z2 G2 | G2 G2 A4- | A2 G2 F2 ED | %17
w: |te,|_|vis en es-|poir da-|voir al- le- ge-|ment et|d'ob- te- nir|_ ce où est _|
 C2 C2 G2 G2 | A3 G FE G2- | GF F3 E/D/ E2 | F8 | z4 A4 | F2 G2 A4- | A2 G2 c3 B | A2 G2 A2 B2- | %25
w: _ ton en- ten-|||te,|car|non ob- stant|_ qu'à tay- *|* mer ie con-|
 BA A4 G2 | A6 GF | E4 z2 A2 | B3 A G2 A2- | AG F2 B4 | G2 A3 GFE | FE ED/C/ D4 | C2 C2 D2 E2 | %33
w: * * sen- *|te, _ _|_ l'hon-|neur _ _ veult|_ _ _ main-|tef- fois _ con- tre-|di- * * * * *|re, mais pos- si-|
 F2 z E F2 G2 | A3 G A2 B2 | c3 B AG d2- | dc c4 B2 | c8 | z2 c2 c2 B2 | A2 z A A2 G2 | %40
w: bl'est, mais pos- si-|bl'est qu'ap- pres la|lon- * * * gue'at-|* * ten- *|te,|a- voir pour-|ras, a- voir pour-|
 F3 E/D/ C4 | z2 E2 E2 E2 | F2 G2 A4 | G4 z2 G2 | G2 G2 A2 A2 | B4 A2 G2- | GF F4 E2 | F4 z2 C2 | %48
w: ras _ _ _|le bien que|tu de- si-|re, le|bien que tu de-|si- * *||re mais|
 D2 E2 F4 | z2 E2 F2 G2 | A3 G A2 B2 | c3 B AG d2- |"^-natural" dc c4 B2 | c4 z2 c2 | %54
w: pos- si- bl'est,|mais pos- si-|bl'est qu'ap- pres la|lon- * * * gue'at-|* * ten- *|te, a-|
 c2 B2 A2 z A | A2 G2 F3 E/D/ | C2 E2 E2 E2 | F2 G2 A4 | G2 C2 CD EF | GE FG AF GA | B4 A2 G2- | %61
w: voir pour- ras, a-|voir pour- ras _ _|_ le bien que|tu de- si-|re, le bien _ _ _|_ _ _ _ _ _ _ _|que tu de-|
 GF F4 E2 | F8 |] %63
w: * * si- *|re.|
V:2
 z8 | F4 A3 B | c2 c2 d2 B2 |"^b" e3 d c2 BA | B2 c3 BAG | F2 G2 A2 c2 | c2 A2 B2 c2 | %7
w: |Si tu te|plains da- mours tant|seul- * * * *||le- ment, et que|de moy as- sez|
 A2 d2 d2 c2 | BAAG/F/ G4 | F4 z4 | F6 G2 | A2 B4 AG | FGAB c2 d2 | e2 c2 d2 B2 | c2 z c c3 B/A/ | %15
w: tu te con- ten-||te,|vis en|es- poir _ _|_ _ _ _ _ da-|voir al- le- ge-|ment et d'ob- * *|
 B2 c3 BAG | F2 G2 A2 c2 | c2 A2 B2 c2- | c2 d3 cBA | BAGF G4 | F4 z4 | A3 B c2 d2- | d2 B2 cBAG | %23
w: te- nir _ _ _|_ _ _ ce|où est ton en-|* ten- * * *||te,|car _ _ non|_ ob- stant _ _ _|
 F2 c4 f2- | f2 e2 d2 d2 | c2 BA B2 c2- | c2 F3 GAB | c2 c4 d2- | dc B2 c3 B | A2 d4 B2 | %30
w: _ qu'à t'ay-|* mer ie con-|sen- * * * *||te, l'hon- neur|_ _ _ y _|veult main- tef-|
 c2 F3 GAG |"^-natural" AB c4 B2 | c2 A2 B2 G2 | F2 c2 d2 B2 | A2 f2 f2 d2 | e2 c2 de f2- | %36
w: fois con- * * *|tre- * di- *|re, mais pos- si-|bl'est, mais pos- si-|bl'est qu'ap- pres la|lon- gue'at- ten- * *|
 feed/c/ d4 | c4 z2 f2 | f2 e2 d3 c/B/ | c2 FG AB c2 | d2 B2 A2 z A | A3 B c2 c2 | d2 c4 BA | %43
w: |te, a-|voir pour- ras, _ _|_ a- * * * *|voir pour- ras le|bien que tu de-|si- * * *|
 B c2 B c4 | z2 c2 c2 c2 | d2 B2 c3 B | A2 GF G4 | F2 F2 G2 A2 | B2 G2 A2 B2 | c2 c2 d2 e2 | %50
w: * * * re,|a- voir pour-|ras le bien qie|tu de- * si-|re, mais pos- si-|bl'est, mais pos- si-|bl'est qu'apres la lon-|
 f3 e f2 g2 | e2 f3 edc | B2 c2 d4 | c2 c2 c3 B | A2 G2 FGAB | cABc d2 A2 | A3 B c2 c2 | d2 c4 F2 | %58
w: gu'at- * ten- te,|la lon- * * *|* gu'at- ten|te, a- voir _|_ pour- ras _ _ _|_ _ _ _ _ le|bien que tu de-|si- * re,|
 G2 A3 B cA | BcdB cd e2 | d4 c3 B | A2 GF G4 | F8 |] %63
w: le bien que tu _|_ _ _ _ _ _ de-|si- * *||re.|
V:3
 F,4 B,2 B,2 | A,4 F,4 | E,2 F,2 B,,2 B,,2 | C,2 C,2 C,D, E,F, | G,2 C,2 F,2 F,2 | D,2 E,2 F,4- | %6
w: Si tu te|plains, si|tu te plains da-|mours tant seul- * * *|* le- ment et|que de moy|
 F,2 F,2 G,2 C,2 | F,4 D,2 _E,2- | E,2 F,2 C,4 | F,4 z4 | F,3 G, A,2 B,2 | C2 D4 CB, | %12
w: _ as- sez tu|te con- ten-||te,|vis _ _ en|es- poir _ _|
 A,B, C2 F,4 | E,2 A,2 G,2 G,2 | C,2 C,2 C,2 C,2 | G,2 C,2 F,3 E, | D,2 E,2 F,2 C,2 | %17
w: _ _ _ _|da- voir al- le-|ge- ment et d'ob-|te- nir ce _|_ où est ton|
 F,2 F,2 G,2 E,2 | F,3 E, D,2 G,2 | _E,2 F,2 C,4 | F,4 z4 | F,6 F,2 | B,4 A,2 F,2 | %23
w: en- ten- te, ce-|où _ _ est|ton en- ten-|te,|car non|ob- stant qu'à|
 C3 B, A,2 F,2- | F,2 G,2 D,2 B,,2 | F,2 F,2 G,2 C,2 | F,3 E, D,4 | C,4 z2 F,2 | G,3 F, E,2 F,2- | %29
w: tay- * * mer|_ ie con- *|sen- te, ie con-|sen- * *|te, l'hon-|neur _ _ y|
 F,E, D,2 G,4 | E,2 F,2 D,4- | D,2 E,2 F,2 G,2 |"^-natural" C,2 F,2 B,,2 C,2 | D,2 A,2 D,2 G,2 | %34
w: _ _ veult main-|tef- fois con-|* tre- di- *|re, mais pos- si-|bl'est, mais pos- si-|
 F,2 F,2 F,2 B,2 | A,4 D,3 E, | F,G, A,2 G,4 | C,2 F,2 F,3 E, | D,2 C,2 G,4 | F,4 F,2 E,2 | %40
w: bl'est qu'ap- pres la|lon- gue'at- *|* * * ten-|te, a- voir _|_ pour- ras,|a- voir pour-|
 D,3 E, F,3 E, | F,G, A,4 A,2 | D,2 E,2 F,2 F,2 | G,4 C,2 C,2 | C,2 C,2 F,2 A,2 | G,4 C,2 C,2 | %46
w: ras, _ _ _|_ _ _ le|bien que tu de-|si- re, le|bien que tu de-|si- re, de-|
 D,4 C,4 | F,4 z2 F,2 | D,2 G,2 F,2 E,D, | C,2 C2 B,2 G,2 | F,2 A,2 A,2 G,2 | A,4 F,2 G,2- | %52
w: si- *|re, mais|pos- si- bl'est, _ _|_ mais pos- si-|bl'est qu'ap- pres la|lon- ge'at- ten-|
 G,2 A,2 G,4 | C,2 C,2 F,4- | F,2 G,2 A,2 F,2 | F,2 E,2 D,2 F,2- | F,2 E,D, C,4 | z2 C,2 F,2 D,2 | %58
w: |te, a- voir|_ pour- ras, a-|voir pour- ras, _|_ _ _ _|le bien que|
 E,2 F,2 A,4 | G,2 D,2 F,2 C,2 | B,,4 C,4 | D,4 C,4 | F,8 |] %63
w: tu- de- si-|re, le bien que|tu de-|si- *|re.|

